lib/brands/logos/stripe.svg

<svg xmlns="http://www.w3.org/2000/svg" fill="none" aria-hidden="true" viewBox="0 0 161 73"><g id="Stripe"><g id="Union"><path fill="#635BFF" d="M86.8305 13.0276L76.1665 15.3219V6.65472L86.8305 4.40295V13.0276Z"/><path fill="#635BFF" fill-rule="evenodd" d="M109.008 17.8286C104.845 17.8286 102.168 19.7829 100.681 21.1425L100.129 18.5083H90.7817V68.0471L101.403 65.7954L101.446 53.7718C102.975 54.8764 105.227 56.4484 108.966 56.4484C116.571 56.4484 123.496 50.3304 123.496 36.8623C123.454 24.5414 116.443 17.8286 109.008 17.8286ZM106.459 47.1015C103.952 47.1015 102.465 46.2093 101.446 45.1046L101.403 29.3423C102.508 28.1102 104.037 27.2605 106.459 27.2605C110.325 27.2605 113.002 31.5941 113.002 37.1597C113.002 42.8529 110.368 47.1015 106.459 47.1015Z" clip-rule="evenodd"/><path fill="#635BFF" fill-rule="evenodd" d="M156.975 37.2872C156.975 26.4107 151.707 17.8286 141.638 17.8286C131.526 17.8286 125.408 26.4107 125.408 37.2022C125.408 49.9905 132.63 56.4484 142.997 56.4484C148.053 56.4484 151.877 55.3013 154.766 53.6868V45.1896C151.877 46.6341 148.563 47.5263 144.357 47.5263C140.236 47.5263 136.582 46.0818 136.114 41.0685H156.89C156.89 40.8343 156.905 40.3023 156.923 39.6894C156.947 38.8567 156.975 37.8746 156.975 37.2872ZM135.987 33.251C135.987 28.4501 138.918 26.4532 141.595 26.4532C144.187 26.4532 146.948 28.4501 146.948 33.251H135.987Z" clip-rule="evenodd"/><path fill="#635BFF" d="M86.8305 18.5508H76.1665V55.7262H86.8305V18.5508Z"/><path fill="#635BFF" d="M64.0579 18.5509L64.7377 21.6948C67.2444 17.1063 72.2152 18.041 73.5748 18.5509V28.3227C72.2577 27.8553 68.0091 27.2605 65.5024 30.5319V55.7262H54.8809V18.5509H64.0579Z"/><path fill="#635BFF" d="M43.4946 9.33135L33.128 11.5406L33.0855 45.572C33.0855 51.8599 37.8015 56.4909 44.0894 56.4909C47.5733 56.4909 50.1225 55.8536 51.5245 55.0889V46.4642C50.165 47.0165 43.4521 48.9709 43.4521 42.6829V27.6004H51.5245V18.5508H43.4521L43.4946 9.33135Z"/><path fill="#635BFF" d="M18.3853 27.048C16.1336 27.048 14.774 27.6853 14.774 29.3423C14.774 31.1514 17.1138 31.9472 20.0166 32.9345C24.7489 34.5441 30.9774 36.6625 31.0037 44.5098C31.0037 52.1148 24.9282 56.4909 16.0911 56.4909C12.4373 56.4909 8.44358 55.7686 4.49237 54.0692V43.9575C8.0612 45.9119 12.5647 47.3564 16.0911 47.3564C18.4703 47.3564 20.1697 46.7191 20.1697 44.7647C20.1697 42.7608 17.6333 41.8448 14.5712 40.739C9.90778 39.0549 4.02502 36.9305 4.02502 29.8521C4.02502 22.3321 9.76065 17.8286 18.3853 17.8286C21.9117 17.8286 25.3955 18.3809 28.9219 19.7829V29.7671C25.6929 28.0252 21.6143 27.048 18.3853 27.048Z"/></g></g></svg>

<svg xmlns="http://www.w3.org/2000/svg" fill="none" aria-hidden="true" viewBox="0 0 161 73"><path fill="#635BFF" d="m86.83 13.028-10.664 2.294V6.655L86.83 4.403v8.625Z"/><path fill="#635BFF" fill-rule="evenodd" d="M109.008 17.828c-4.164 0-6.84 1.955-8.327 3.314l-.552-2.634h-9.347v49.54l10.621-2.253.043-12.023c1.529 1.104 3.781 2.676 7.52 2.676 7.605 0 14.53-6.118 14.53-19.586-.043-12.32-7.053-19.034-14.488-19.034Zm-2.549 29.273c-2.507 0-3.994-.892-5.013-1.996l-.043-15.763c1.105-1.232 2.634-2.082 5.056-2.082 3.866 0 6.543 4.334 6.543 9.9 0 5.693-2.634 9.941-6.543 9.941Zm50.516-9.814c0-10.876-5.268-19.459-15.338-19.459-10.111 0-16.229 8.583-16.229 19.374 0 12.788 7.222 19.246 17.589 19.246 5.056 0 8.88-1.147 11.769-2.761V45.19c-2.889 1.444-6.203 2.336-10.409 2.336-4.122 0-7.775-1.444-8.243-6.458h20.776c0-.234.015-.766.033-1.379.024-.832.052-1.815.052-2.402Zm-20.988-4.036c0-4.801 2.931-6.798 5.608-6.798 2.592 0 5.353 1.997 5.353 6.798h-10.961Z" clip-rule="evenodd"/><path fill="#635BFF" d="M86.83 18.55H76.166v37.176H86.83V18.551Zm-22.772 0 .68 3.145c2.506-4.589 7.477-3.654 8.837-3.144v9.772c-1.317-.468-5.566-1.063-8.073 2.209v25.194H54.881V18.551h9.177ZM43.495 9.331l-10.367 2.21-.043 34.03c0 6.289 4.716 10.92 11.004 10.92 3.484 0 6.033-.637 7.435-1.402v-8.625c-1.36.553-8.072 2.507-8.072-3.781V27.6h8.072v-9.05h-8.072l.043-9.219Zm-25.11 17.717c-2.252 0-3.611.637-3.611 2.294 0 1.81 2.34 2.605 5.243 3.593 4.732 1.609 10.96 3.727 10.987 11.575 0 7.605-6.076 11.98-14.913 11.98-3.654 0-7.648-.721-11.599-2.42V43.957c3.57 1.954 8.073 3.398 11.599 3.398 2.38 0 4.079-.637 4.079-2.591 0-2.004-2.537-2.92-5.599-4.026C9.908 39.055 4.025 36.93 4.025 29.852c0-7.52 5.736-12.024 14.36-12.024 3.527 0 7.01.553 10.537 1.955v9.984c-3.23-1.742-7.308-2.719-10.537-2.719Z"/></svg>
